X:45
T: Westphalia Waltz %% X:33 WJ 2015
M: 3/4
L: 1/8
K: G
% %%vskip .5cm 
                                                   D EF |\
"G"G4    A2 |  "Bm"B4      e2 |"Em"d6-    |"Bm"d3  D EF |\
"G"G4    A2 |   "E"B4      c2 |"Am"A4- AB | "D"A4    G2 |
   F4    G2 |  "Am"A4      g2 | "D"f4- fg |    f4    e2 |\
   d3 ^c de |[1"D7"d2 ^c2 =c2 | "G"B4- Bc |    B3      :|\
             [2    d2  F2  A2 | "G"G6     |    G2 B2 d2 ||
|: \
 "G" .g4   (3ggg |"Bm".f4    (3fff |"Em"e2 f2 g2 |"Bm"B6     |\
 "G"(3BcB A2 G2  |   (3BcB A2  G2  |"Am"c3  B cd | "D"c6     |
"Am" .e4   (3eee |    .e4    (3eee | "C"e2 f2 g2 | "D"f4 e2  |\
      d3 ^c  de  |[1   d2 ^c2 =c2  | "G"B4-   Bc |    B4 d2 :|\
                  [2   d2  F2  A2  | "G"G6       |    G3     |]
% %%stretchlast
% %%vskip .6cm 
% %%center THANKS for playing at the WALTZ MELODIES JAM with THREE QUARTER TIME
% %%center Airs, Bourr\'ees, Mazurkas, Minuets, and Waltzes are all played in 3/4 time.
% %%vskip .3cm 
% %%text Please include the WALTZ MELODIES JAM in your NEFFA evaluation to reschedule it for next year:
% %%text Use the paper forms in the Festival lobbies, or online after the Festival: www.neffa.org
% %%vskip .4cm 
% %%text Bob Alessio has led the Waltz Melodies Jam since 2001 at NEFFA and since 2006 at Fiddle Hell.
% %%text Bob teaches guitar, fiddle, mandolin, and Italian in Marlbourough MA  www.AssabetAfterDark.com
% %%vskip .1cm 
% %%text Send comments and suggestions to Bob: AlessioBob@aol.com
% %%vskip .3cm  
% %%text John Chambers, Karl Goedecke, Michael Pavan, and Andrew Riffin also play with Roaring Jelly  
% %%text for Contra Dances (3rd Fridays, Sept - June) in Lexington MA, and elsewhere  www.RoaringJelly.org
% %%vskip .3cm 
% %%text John Chambers plays with many groups (Celtic, Contra, Klezmer, International, Italian, and Scandinavian)
% %%text Shelley Drowns also plays with Scandinavian groups and flute with the Waltham American Legion Band 
% %%text Karl Goedecke also plays with the Boston Scottish Fiddle Club  www.bsfc.org
% %%text Bob Higgins and Michael Pavan also play with the Falmouth Fiddlers  www.FalmouthFiddlers.org
% %%text Elizabeth Lynch majored in Music at Bucknell University with an emphasis on Piano
% %%vskip .3cm 
% %%text Music booklet transcribed by Michael Pavan, please send corrections to him: michaelpavan@comcast.net
% %%vskip .3cm 
% %%text Find more music in these great books: The Portland Collection (1-3) www.thePortlandCollection.com
% %%text The Waltz Books (I-IV) www.bfv.com/waltz             Jay Ungar & Molly Mason    www.JayandMolly.com
% %%text The New England Fiddler's Repertoire                          www.FiddlecaseBooks.com/book-catalog.html
% %%text Brian Wicklund's American Fiddle (and Mandolin) Method                   www.AmericanFiddleMethod.com
% %%text Find more music online:   (John Chambers') JC's Tune Finder      trillian.mit.edu/~jc/cgi/abc/tunefind
% %%text The Fiddler's Companion   www.ibiblio.org/fiddlers              The Session   www.thesession.org
% %%text Paul Harty's Tunebooks www.pghardy.net/concertina/tunebooks    TuneDB  tunedb.woodenflute.com
